images/form-icons.svg

<svg aria-hidden="true" style="position: absolute; width: 0; height: 0; overflow: hidden;" version="1.1" xmlns="http://www.w3.org/2000/svg" xmlns:xlink="http://www.w3.org/1999/xlink">
<defs>
<symbol id="icon-check" viewBox="0 0 32 32">
<path d="M28.444 4.333v23.333h-24.889v-23.333h24.889zM28.444 1h-24.889c-1.956 0-3.556 1.5-3.556 3.333v23.333c0 1.833 1.6 3.333 3.556 3.333h24.889c1.956 0 3.556-1.5 3.556-3.333v-23.333c0-1.833-1.6-3.333-3.556-3.333z"></path>
</symbol>
<symbol id="icon-form-name" viewBox="0 0 32 32">
<path d="M16 16c2.947 0 5.333-2.387 5.333-5.333s-2.387-5.333-5.333-5.333c-2.947 0-5.333 2.387-5.333 5.333s2.387 5.333 5.333 5.333zM16 18.667c-3.56 0-10.667 1.787-10.667 5.333v1.333c0 0.733 0.6 1.333 1.333 1.333h18.667c0.733 0 1.333-0.6 1.333-1.333v-1.333c0-3.547-7.107-5.333-10.667-5.333z"></path>
</symbol>
<symbol id="icon-form-tel" viewBox="0 0 32 32">
<path d="M24.882 19.773l-3.268-0.373c-0.785-0.090-1.557 0.18-2.11 0.733l-2.367 2.367c-3.641-1.853-6.626-4.825-8.478-8.478l2.38-2.38c0.553-0.553 0.823-1.325 0.733-2.11l-0.373-3.242c-0.154-1.299-1.248-2.277-2.56-2.277h-2.226c-1.454 0-2.663 1.209-2.573 2.663 0.682 10.987 9.469 19.761 20.443 20.443 1.454 0.090 2.663-1.119 2.663-2.573v-2.226c0.013-1.299-0.965-2.393-2.264-2.547z"></path>
</symbol>
<symbol id="icon-form-email" viewBox="0 0 32 32">
<path d="M26.667 5.333h-21.333c-1.467 0-2.653 1.2-2.653 2.667l-0.013 16c0 1.467 1.2 2.667 2.667 2.667h21.333c1.467 0 2.667-1.2 2.667-2.667v-16c0-1.467-1.2-2.667-2.667-2.667zM26.133 11l-9.427 5.893c-0.427 0.267-0.987 0.267-1.413 0l-9.427-5.893c-0.333-0.213-0.533-0.573-0.533-0.96 0-0.893 0.973-1.427 1.733-0.96l8.933 5.587 8.933-5.587c0.76-0.467 1.733 0.067 1.733 0.96 0 0.387-0.2 0.747-0.533 0.96z"></path>
</symbol>
<symbol id="icon-check-2" viewBox="0 0 32 32">
<path fill="#2196f3" style="fill: var(--color1, #2196f3)" d="M4 1h24c2.209 0 4 1.791 4 4v22c0 2.209-1.791 4-4 4h-24c-2.209 0-4-1.791-4-4v-22c0-2.209 1.791-4 4-4z"></path>
<path fill="#fff" style="fill: var(--color2, #fff); stroke: var(--color2, #fff)" stroke="#fff" stroke-linejoin="miter" stroke-linecap="butt" stroke-miterlimit="4" stroke-width="0.4" d="M7.914 16.503l-0.138-0.131-2.067 1.958 7.282 6.947 15.298-14.594-2.053-1.959-13.245 12.623-5.077-4.844z"></path>
<symbol id="icon-checkin" viewBox="0 0 42 32">
    <path d="M6.263 15.205l-0.22-0.21-3.307 3.132 11.651 11.114 24.477-23.351-3.285-3.134-21.192 20.197-8.124-7.75z"></path>
</symbol>
</symbol>
</defs>
</svg>

<svg aria-hidden="true" style="position:absolute;width:0;height:0;overflow:hidden" xmlns="http://www.w3.org/2000/svg">
  <defs>
    <symbol id="icon-telegram" viewBox="0 0 32 32">
      <path fill="#fff" style="fill:var(--color1, #fff)" d="M32 0 0 18l10.227 3.788L26 7 14.002 23.186l.01.004-.012-.004V32l5.735-6.691L27 28l5-28z"/>
    </symbol>
    <symbol id="icon-icon-check-1" viewBox="0 0 32 32">
      <path d="M28.444 4.333v23.333H3.555V4.333h24.889zm0-3.333H3.555C1.599 1-.001 2.5-.001 4.333v23.333c0 1.833 1.6 3.333 3.556 3.333h24.889c1.956 0 3.556-1.5 3.556-3.333V4.333C32 2.5 30.4 1 28.444 1z"/>
    </symbol>
    <symbol id="icon-form-name" viewBox="0 0 32 32">
      <path d="M16 16c2.947 0 5.333-2.387 5.333-5.333S18.946 5.334 16 5.334c-2.947 0-5.333 2.387-5.333 5.333S13.054 16 16 16zm0 2.667c-3.56 0-10.667 1.787-10.667 5.333v1.333c0 .733.6 1.333 1.333 1.333h18.667c.733 0 1.333-.6 1.333-1.333V24c0-3.547-7.107-5.333-10.667-5.333z"/>
    </symbol>
    <symbol id="icon-form-tel" viewBox="0 0 32 32">
      <path d="m24.882 19.773-3.268-.373a2.561 2.561 0 0 0-2.11.733L17.137 22.5a19.357 19.357 0 0 1-8.478-8.478l2.38-2.38a2.561 2.561 0 0 0 .733-2.11l-.373-3.242a2.575 2.575 0 0 0-2.56-2.277H6.613c-1.454 0-2.663 1.209-2.573 2.663.682 10.987 9.469 19.761 20.443 20.443 1.454.09 2.663-1.119 2.663-2.573V22.32a2.55 2.55 0 0 0-2.264-2.547z"/>
    </symbol>
    <symbol id="icon-form-email" viewBox="0 0 32 32">
      <path d="M26.667 5.333H5.334A2.663 2.663 0 0 0 2.681 8l-.013 16c0 1.467 1.2 2.667 2.667 2.667h21.333c1.467 0 2.667-1.2 2.667-2.667V8c0-1.467-1.2-2.667-2.667-2.667zM26.133 11l-9.427 5.893a1.346 1.346 0 0 1-1.413 0L5.866 11a1.132 1.132 0 1 1 1.2-1.92l8.933 5.587 8.933-5.587a1.132 1.132 0 1 1 1.2 1.92z"/>
    </symbol>
    <symbol id="icon-icon-check-2" viewBox="0 0 32 32">
      <path fill="#2196f3" style="fill:var(--color2, #2196f3)" d="M4 1h24a4 4 0 0 1 4 4v22a4 4 0 0 1-4 4H4a4 4 0 0 1-4-4V5a4 4 0 0 1 4-4z"/>
      <path fill="#fff" style="fill:var(--color1, #fff);stroke:var(--color1, #fff)" stroke="#fff" stroke-width=".4" d="m7.914 16.503-.138-.131-2.067 1.958 7.282 6.947 15.298-14.594-2.053-1.959-13.245 12.623-5.077-4.844z"/>
    </symbol>
  </defs>
</svg>
